X:1
T:Title
%%score { 1 | ( 2 3 ) }
L:1/8
M:4/4
K:C
V:1 treble nm="Grand Piano"
V:2 bass 
V:3 bass 
V:1
 z4 z2[Q:1/4=116] E2 |[M:3/4] E4 E2 | G4 E2 | [G,B,D]4 [B,DG]2 | [CEG]4 [CFA]2 | [CEG]4 [G,DF]2 | %6
 E4 G2 | A2 G2 ^F2 | G2 D2 E2 | [DF]2 [B,D]2 [A,C]2 | [B,D]4 [B,D]2 | [CE]2 F2 [G,EG]2 | %12
 [A,DF]2 [CE]2 [B,D]2 |[M:2/4] [CE]4 |] %14
V:2
 z4 z2 [C,G,C]2 |[M:3/4] [C,G,C]4 [C,G,C]2 | [E,G,C]4 [C,G,C]2 | G,,4 G,,2 | C,4 F,2 | G,4 G,,2 | %6
 [C,G,C]4 [G,B,D]2 | D4 z2 | D2 z2 z2 | [G,,G,]4 [G,,G,]2 | [G,,G,]4 [G,,G,]2 | z2 D2 C,2 | %12
 F,,2 [G,,G,]2 [G,,G,]2 |[M:2/4] [C,G,]4 |] %14
V:3
 x8 |[M:3/4] x6 | x6 | x6 | x6 | x6 | x6 | [^F,C]2 [G,B,]2 [A,CD]2 | [G,B,]4 [G,C]2 | x6 | x6 | %11
 [C,G,]4 z2 | x6 |[M:2/4] x4 |] %14

